X: 42874
T: Wild Swans At Coole, The
R: reel
M: 4/4
K: Cmajor
Ad (3edc d2 AB|~c3 G EFGE|DA,~A,2 CA,~A,2|FEDB, CA,G,_B,|
A,2FE FEDC|A,B,CD FGAB|cd^fg agfa|ge^ce d3c||
K:D
d2 Ad fgaf|e=~c3 efge|d2 Ad fgaf|gfaf eddc|
defg abag|d2 Ad fgaf|~a3g (3efg ed|=cAGE D4||

